T: Congress, The
M: 4/4
L: 1/8
K: Ador
eA{B}AG ABcd | ea{c'}af (3.g.f.e df | eA{B} (3AGA eA {B}(3AGA  | BG {A}(3GFG Bcdf |
eA{B}AG ABcd |"Not the original ending" ea{c'}af (3.g.f.e dB | cBcd (3efg ed ||"Correct way to play" ea{c'}af (3.g.f.e d2 | efga (3bag af |
ea {c'} (3aga (3bag af | ea {c} ag (3ege df | (3.e.g.e .d.f (3.e.g.e df | ea{c'} af (3.g.f.e d2 |
ea{c'} (3aga (3bag ag |"Not the original ending" ea {c'}ag (3.e.g.e dB | cBcd (3efg ed | cABG A2 ||
"Correct way to play"ea{c'} ag (3.e.g.e d2 | efga (3bag af | gedB {d}BA ||
